resources/images/logo/nectar.svg

<svg xmlns="http://www.w3.org/2000/svg" width="6405.22" height="6401.22" viewBox="0 0 1694.71 1693.66">
  <defs>
    <clipPath id="a" clipPathUnits="userSpaceOnUse">
      <path d="M0 0h21000v29700H0z"/>
    </clipPath>
  </defs>
  <g style="fill-rule:evenodd;stroke-width:28.22200012;stroke-linejoin:round">
    <g class="SlideGroup">
      <g class="Slide" clip-path="url(#a)" transform="matrix(.26458 0 0 .26458 -2023.24 -3387.7)">
        <g class="Page">
          <g class="com.sun.star.drawing.CustomShape">
            <path d="M10825 14723h2112v2544h-2112z" class="BoundingBox" style="fill:none;stroke:none" transform="translate(36 -1)"/>
            <path d="M10826 16630v-1270l1054-636 1055 636v1270l-1055 635z" style="fill:#ffdbb6;stroke:none" transform="translate(36 -1)"/>
            <path d="M10826 16630v-1270l1054-636 1055 636v1270l-1055 635z" style="fill:none;stroke:#ffdbb6" transform="translate(36 -1)"/>
          </g>
          <g class="com.sun.star.drawing.CustomShape">
            <path d="M8717 14723h2112v2544H8717z" class="BoundingBox" style="fill:none;stroke:none" transform="translate(10)"/>
            <path d="M8718 16630v-1270l1054-636 1055 636v1270l-1055 635z" style="fill:#ff972f;stroke:none" transform="translate(10)"/>
            <path d="M8718 16630v-1270l1054-636 1055 636v1270l-1055 635z" style="fill:none;stroke:#ff972f" transform="translate(10)"/>
          </g>
          <g class="com.sun.star.drawing.CustomShape">
            <path d="M9771 16637h2112v2544H9771z" class="BoundingBox" style="fill:none;stroke:none" transform="translate(22 12)"/>
            <path d="M9772 18544v-1270l1054-636 1055 636v1270l-1055 635z" style="fill:#ffbf00;stroke:none" transform="translate(22 12)"/>
            <path d="M9772 18544v-1270l1054-636 1055 636v1270l-1055 635z" style="fill:none;stroke:#ffbf00" transform="translate(22 12)"/>
          </g>
          <g class="com.sun.star.drawing.CustomShape">
            <path d="M7660 12817h2112v2544H7660z" class="BoundingBox" style="fill:none;stroke:none"/>
            <path d="M7661 14724v-1270l1054-636 1055 636v1270l-1055 635z" style="fill:#ffbf00;stroke:none"/>
            <path d="M7661 14724v-1270l1054-636 1055 636v1270l-1055 635z" style="fill:none;stroke:#ffbf00"/>
          </g>
          <g class="com.sun.star.drawing.CustomShape">
            <path d="M9768 12817h2112v2544H9768z" class="BoundingBox" style="fill:none;stroke:none" transform="translate(28)"/>
            <path d="M9769 14724v-1270l1054-636 1055 636v1270l-1055 635z" style="fill:#be480a;stroke:none" transform="translate(28)"/>
            <path d="M9769 14724v-1270l1054-636 1055 636v1270l-1055 635z" style="fill:none;stroke:#be480a" transform="translate(28)"/>
          </g>
          <g class="com.sun.star.drawing.CustomShape">
            <path d="M11876 12817h2112v2544h-2112z" class="BoundingBox" style="fill:none;stroke:none" transform="translate(52)"/>
            <path d="M11877 14724v-1270l1054-636 1055 636v1270l-1055 635z" style="fill:#ff972f;stroke:none" transform="translate(52)"/>
            <path d="M11877 14724v-1270l1054-636 1055 636v1270l-1055 635z" style="fill:none;stroke:#ff972f" transform="translate(52)"/>
          </g>
        </g>
      </g>
    </g>
  </g>
</svg>

<svg version="1.2" preserveAspectRatio="xMidYMid" fill-rule="evenodd" stroke-width="28.222" stroke-linejoin="round" xmlns="http://www.w3.org/2000/svg" xmlns:ooo="http://xml.openoffice.org/svg/export" xmlns:xlink="http://www.w3.org/1999/xlink" xmlns:presentation="http://sun.com/xmlns/staroffice/presentation" xmlns:smil="http://www.w3.org/2001/SMIL20/" xmlns:anim="urn:oasis:names:tc:opendocument:xmlns:animation:1.0" xmlns:svg="urn:oasis:names:tc:opendocument:xmlns:svg-compatible:1.0" xml:space="preserve" viewBox="7626.91 12783.91 6393.19 6429.19">
 <defs class="ClipPathGroup">
  <clipPath id="presentation_clip_path" clipPathUnits="userSpaceOnUse">
   <rect x="0" y="0" width="21000" height="29700"/>
  </clipPath>
  <clipPath id="presentation_clip_path_shrink" clipPathUnits="userSpaceOnUse">
   <rect x="21" y="29" width="20958" height="29641"/>
  </clipPath>
 </defs>
 <defs class="TextShapeIndex">
  <g ooo:slide="id1" ooo:id-list="id3 id4 id5 id6 id7 id8"/>
 </defs>
 <defs class="EmbeddedBulletChars">
  <g id="bullet-char-template-57356" transform="scale(0.00048828125,-0.00048828125)">
   <path d="M 580,1141 L 1163,571 580,0 -4,571 580,1141 Z"/>
  </g>
  <g id="bullet-char-template-57354" transform="scale(0.00048828125,-0.00048828125)">
   <path d="M 8,1128 L 1137,1128 1137,0 8,0 8,1128 Z"/>
  </g>
  <g id="bullet-char-template-10146" transform="scale(0.00048828125,-0.00048828125)">
   <path d="M 174,0 L 602,739 174,1481 1456,739 174,0 Z M 1358,739 L 309,1346 659,739 1358,739 Z"/>
  </g>
  <g id="bullet-char-template-10132" transform="scale(0.00048828125,-0.00048828125)">
   <path d="M 2015,739 L 1276,0 717,0 1260,543 174,543 174,936 1260,936 717,1481 1274,1481 2015,739 Z"/>
  </g>
  <g id="bullet-char-template-10007" transform="scale(0.00048828125,-0.00048828125)">
   <path d="M 0,-2 C -7,14 -16,27 -25,37 L 356,567 C 262,823 215,952 215,954 215,979 228,992 255,992 264,992 276,990 289,987 310,991 331,999 354,1012 L 381,999 492,748 772,1049 836,1024 860,1049 C 881,1039 901,1025 922,1006 886,937 835,863 770,784 769,783 710,716 594,584 L 774,223 C 774,196 753,168 711,139 L 727,119 C 717,90 699,76 672,76 641,76 570,178 457,381 L 164,-76 C 142,-110 111,-127 72,-127 30,-127 9,-110 8,-76 1,-67 -2,-52 -2,-32 -2,-23 -1,-13 0,-2 Z"/>
  </g>
  <g id="bullet-char-template-10004" transform="scale(0.00048828125,-0.00048828125)">
   <path d="M 285,-33 C 182,-33 111,30 74,156 52,228 41,333 41,471 41,549 55,616 82,672 116,743 169,778 240,778 293,778 328,747 346,684 L 369,508 C 377,444 397,411 428,410 L 1163,1116 C 1174,1127 1196,1133 1229,1133 1271,1133 1292,1118 1292,1087 L 1292,965 C 1292,929 1282,901 1262,881 L 442,47 C 390,-6 338,-33 285,-33 Z"/>
  </g>
  <g id="bullet-char-template-9679" transform="scale(0.00048828125,-0.00048828125)">
   <path d="M 813,0 C 632,0 489,54 383,161 276,268 223,411 223,592 223,773 276,916 383,1023 489,1130 632,1184 813,1184 992,1184 1136,1130 1245,1023 1353,916 1407,772 1407,592 1407,412 1353,268 1245,161 1136,54 992,0 813,0 Z"/>
  </g>
  <g id="bullet-char-template-8226" transform="scale(0.00048828125,-0.00048828125)">
   <path d="M 346,457 C 273,457 209,483 155,535 101,586 74,649 74,723 74,796 101,859 155,911 209,963 273,989 346,989 419,989 480,963 531,910 582,859 608,796 608,723 608,648 583,586 532,535 482,483 420,457 346,457 Z"/>
  </g>
  <g id="bullet-char-template-8211" transform="scale(0.00048828125,-0.00048828125)">
   <path d="M -4,459 L 1135,459 1135,606 -4,606 -4,459 Z"/>
  </g>
  <g id="bullet-char-template-61548" transform="scale(0.00048828125,-0.00048828125)">
   <path d="M 173,740 C 173,903 231,1043 346,1159 462,1274 601,1332 765,1332 928,1332 1067,1274 1183,1159 1299,1043 1357,903 1357,740 1357,577 1299,437 1183,322 1067,206 928,148 765,148 601,148 462,206 346,322 231,437 173,577 173,740 Z"/>
  </g>
 </defs>
 <g>
  <g id="id2" class="Master_Slide">
   <g id="bg-id2" class="Background"/>
   <g id="bo-id2" class="BackgroundObjects"/>
  </g>
 </g>
 <g class="SlideGroup">
  <g>
   <g id="container-id1">
    <g id="id1" class="Slide" clip-path="url(#presentation_clip_path)">
     <g class="Page">
      <g class="com.sun.star.drawing.CustomShape">
       <g id="id3">
        <rect class="BoundingBox" stroke="none" fill="none" x="10825" y="14723" width="2112" height="2544"/>
        <path fill="rgb(255,219,182)" stroke="none" d="M 10826,16630 L 10826,15360 11880,14724 12935,15360 12935,16630 11880,17265 10826,16630 Z"/>
        <path fill="none" stroke="rgb(255,219,182)" d="M 10826,16630 L 10826,15360 11880,14724 12935,15360 12935,16630 11880,17265 10826,16630 Z"/>
       </g>
      </g>
      <g class="com.sun.star.drawing.CustomShape">
       <g id="id4">
        <rect class="BoundingBox" stroke="none" fill="none" x="8717" y="14723" width="2112" height="2544"/>
        <path fill="rgb(255,151,47)" stroke="none" d="M 8718,16630 L 8718,15360 9772,14724 10827,15360 10827,16630 9772,17265 8718,16630 Z"/>
        <path fill="none" stroke="rgb(255,151,47)" d="M 8718,16630 L 8718,15360 9772,14724 10827,15360 10827,16630 9772,17265 8718,16630 Z"/>
       </g>
      </g>
      <g class="com.sun.star.drawing.CustomShape">
       <g id="id5">
        <rect class="BoundingBox" stroke="none" fill="none" x="9771" y="16637" width="2112" height="2544"/>
        <path fill="rgb(255,191,0)" stroke="none" d="M 9772,18544 L 9772,17274 10826,16638 11881,17274 11881,18544 10826,19179 9772,18544 Z"/>
        <path fill="none" stroke="rgb(255,191,0)" d="M 9772,18544 L 9772,17274 10826,16638 11881,17274 11881,18544 10826,19179 9772,18544 Z"/>
       </g>
      </g>
      <g class="com.sun.star.drawing.CustomShape">
       <g id="id6">
        <rect class="BoundingBox" stroke="none" fill="none" x="7660" y="12817" width="2112" height="2544"/>
        <path fill="rgb(255,191,0)" stroke="none" d="M 7661,14724 L 7661,13454 8715,12818 9770,13454 9770,14724 8715,15359 7661,14724 Z"/>
        <path fill="none" stroke="rgb(255,191,0)" d="M 7661,14724 L 7661,13454 8715,12818 9770,13454 9770,14724 8715,15359 7661,14724 Z"/>
       </g>
      </g>
      <g class="com.sun.star.drawing.CustomShape">
       <g id="id7">
        <rect class="BoundingBox" stroke="none" fill="none" x="9768" y="12817" width="2112" height="2544"/>
        <path fill="rgb(190,72,10)" stroke="none" d="M 9769,14724 L 9769,13454 10823,12818 11878,13454 11878,14724 10823,15359 9769,14724 Z"/>
        <path fill="none" stroke="rgb(190,72,10)" d="M 9769,14724 L 9769,13454 10823,12818 11878,13454 11878,14724 10823,15359 9769,14724 Z"/>
       </g>
      </g>
      <g class="com.sun.star.drawing.CustomShape">
       <g id="id8">
        <rect class="BoundingBox" stroke="none" fill="none" x="11876" y="12817" width="2112" height="2544"/>
        <path fill="rgb(255,151,47)" stroke="none" d="M 11877,14724 L 11877,13454 12931,12818 13986,13454 13986,14724 12931,15359 11877,14724 Z"/>
        <path fill="none" stroke="rgb(255,151,47)" d="M 11877,14724 L 11877,13454 12931,12818 13986,13454 13986,14724 12931,15359 11877,14724 Z"/>
       </g>
      </g>
     </g>
    </g>
   </g>
  </g>
 </g>
</svg>
